images/logo-max.svg

<svg width="143" height="34" fill="none" xmlns="http://www.w3.org/2000/svg"><path d="M.876465 6.81818V33H4.63499V14.0412h.2429l7.72161 18.9204h3.1193l7.7216-18.9076h.2429V33h3.7585V6.81818h-4.794L14.3125 27.1705h-.3068L5.6705 6.81818H.876465zM42.0093 33.3963c4.2827 0 7.3125-2.1094 8.1818-5.3054l-3.6179-.652c-.6903 1.8537-2.3523 2.7997-4.5256 2.7997-3.2727 0-5.4716-2.1221-5.5738-5.9062H50.434v-1.3551c0-7.0952-4.2443-9.8693-8.6932-9.8693-5.4716 0-9.0767 4.1676-9.0767 10.2017 0 6.098 3.554 10.0866 9.3452 10.0866zm-5.5227-11.9275c.1534-2.787 2.1732-5.2032 5.2798-5.2032 2.9659 0 4.9091 2.1989 4.9219 5.2032H36.4866zM69.3896 18.1577c-.7926-3.0554-3.1832-5.0497-7.4276-5.0497-4.436 0-7.5809 2.3394-7.5809 5.8167 0 2.7869 1.6875 4.6406 5.3693 5.4588l3.3239.7287c1.892.4219 2.7741 1.2656 2.7741 2.4929 0 1.5213-1.6236 2.7102-4.1292 2.7102-2.2884 0-3.7586-.9843-4.2188-2.9147l-3.6946.5625c.6392 3.4772 3.5284 5.4332 7.9389 5.4332 4.7429 0 8.0284-2.5185 8.0284-6.0724 0-2.7742-1.7642-4.4873-5.3693-5.3182l-3.1193-.7159c-2.1605-.5114-3.0938-1.2401-3.081-2.5696-.0128-1.5086 1.6236-2.5824 3.7969-2.5824 2.3778 0 3.4773 1.3167 3.9247 2.6335l3.4645-.6136zM83.1421 13.3636h-4.027V8.65909h-3.8224v4.70451h-2.8765v3.0682h2.8765V28.027c-.0128 3.5668 2.7102 5.2926 5.7272 5.2287 1.2145-.0128 2.0327-.2429 2.4801-.4091l-.6903-3.1577c-.2557.0512-.7287.1662-1.3423.1662-1.2401 0-2.3523-.4091-2.3523-2.6207V16.4318h4.027v-3.0682zM95.4308 33.3963c5.5352 0 9.1532-4.0525 9.1532-10.125 0-6.1108-3.618-10.1633-9.1532-10.1633-5.5355 0-9.1534 4.0525-9.1534 10.1633 0 6.0725 3.6179 10.125 9.1534 10.125zm.0128-3.2088c-3.6179 0-5.3054-3.1577-5.3054-6.929 0-3.7585 1.6875-6.9545 5.3054-6.9545 3.5923 0 5.2794 3.196 5.2794 6.9545 0 3.7713-1.6871 6.929-5.2794 6.929zM108.057 9h1.057V5.59091h1.909c.076 0 .149 0 .221-.00426L113.085 9h1.228l-1.973-3.60511c1.112-.37927 1.632-1.28694 1.632-2.44603 0-1.54261-.921-2.676133-2.966-2.676133h-2.949V9zm1.057-4.36364V1.21023h1.858c1.414 0 1.96.69034 1.96 1.73863 0 1.0483-.546 1.6875-1.943 1.6875h-1.875zM119.721 6.32386c0 1.22728-.937 1.78978-1.687 1.78978-.835 0-1.432-.61364-1.432-1.56819v-4.0909h-1.006v4.15909c0 1.67045.887 2.47159 2.114 2.47159.989 0 1.636-.52841 1.943-1.19318h.068V9h1.006V2.45455h-1.006v3.86931zM127.205 3.92045c-.315-.92897-1.022-1.55113-2.318-1.55113-1.381 0-2.403.78409-2.403 1.89204 0 .90341.537 1.50853 1.738 1.78978l1.091.25568c.661.15341.972.46875.972.92045 0 .5625-.597 1.02273-1.534 1.02273-.823 0-1.338-.35369-1.517-1.05682l-.955.23864c.235 1.11221 1.151 1.70454 2.489 1.70454 1.521 0 2.557-.83096 2.557-1.96022 0-.91194-.571-1.48722-1.739-1.77273l-.972-.23864c-.775-.19176-1.125-.4517-1.125-.95454 0-.5625.597-.97159 1.398-.97159.878 0 1.24.48579 1.415.9375l.903-.25569zM133.475 3.92045c-.316-.92897-1.023-1.55113-2.318-1.55113-1.381 0-2.404.78409-2.404 1.89204 0 .90341.537 1.50853 1.739 1.78978l1.091.25568c.66.15341.971.46875.971.92045 0 .5625-.596 1.02273-1.534 1.02273-.822 0-1.338-.35369-1.517-1.05682l-.954.23864c.234 1.11221 1.15 1.70454 2.488 1.70454 1.522 0 2.557-.83096 2.557-1.96022 0-.91194-.571-1.48722-1.738-1.77273l-.972-.23864c-.776-.19176-1.125-.4517-1.125-.95454 0-.5625.597-.97159 1.398-.97159.877 0 1.24.48579 1.414.9375l.904-.25569zM135.108 9h1.006V2.45455h-1.006V9zm.511-7.63636c.392 0 .716-.30682.716-.681822 0-.375-.324-.681818-.716-.681818-.392 0-.716.306818-.716.681818 0 .375002.324.681822.716.681822zM139.882 9.15341c1.142 0 1.738-.61364 1.943-1.03977h.051V9h1.006V4.6875c0-2.07955-1.585-2.31818-2.421-2.31818-.988 0-2.113.34091-2.625 1.53409l.955.34091c.221-.47727.746-.98864 1.704-.98864.925 0 1.381.49006 1.381 1.32955v.03409c0 .48579-.494.44318-1.687.59659-1.215.15767-2.54.42614-2.54 1.92614 0 1.2784.988 2.01136 2.233 2.01136zm.153-.90341c-.801 0-1.38-.35795-1.38-1.05682 0-.76704.698-1.00568 1.482-1.10795.427-.05114 1.569-.17046 1.739-.375v.92045c0 .81818-.648 1.61932-1.841 1.61932z" fill="#fff"/></svg>

<svg width="143" height="34" viewBox="0 0 143 34" fill="none" xmlns="http://www.w3.org/2000/svg">
<path d="M0.876465 6.81818V33H4.63499V14.0412H4.87789L12.5995 32.9616H15.7188L23.4404 14.054H23.6833V33H27.4418V6.81818H22.6478L14.3125 27.1705H14.0057L5.6705 6.81818H0.876465Z" fill="white"/>
<path d="M41.3413 33.3963C45.624 33.3963 48.6538 31.2869 49.5231 28.0909L45.9052 27.4389C45.2149 29.2926 43.553 30.2386 41.3797 30.2386C38.1069 30.2386 35.9081 28.1165 35.8058 24.3324H49.766V22.9773C49.766 15.8821 45.5217 13.108 41.0728 13.108C35.6013 13.108 31.9961 17.2756 31.9961 23.3097C31.9961 29.4077 35.5501 33.3963 41.3413 33.3963ZM35.8186 21.4688C35.972 18.6818 37.9919 16.2656 41.0984 16.2656C44.0643 16.2656 46.0075 18.4645 46.0203 21.4688H35.8186Z" fill="white"/>
<path d="M68.7216 18.1577C67.929 15.1023 65.5384 13.108 61.2941 13.108C56.858 13.108 53.7131 15.4474 53.7131 18.9247C53.7131 21.7116 55.4006 23.5653 59.0824 24.3835L62.4063 25.1122C64.2983 25.5341 65.1804 26.3778 65.1804 27.6051C65.1804 29.1264 63.5569 30.3153 61.0512 30.3153C58.7628 30.3153 57.2927 29.331 56.8324 27.4006L53.1378 27.9631C53.777 31.4403 56.6662 33.3963 61.0768 33.3963C65.8196 33.3963 69.1052 30.8778 69.1052 27.3239C69.1052 24.5497 67.341 22.8366 63.7358 22.0057L60.6165 21.2898C58.456 20.7784 57.5228 20.0497 57.5356 18.7202C57.5228 17.2116 59.1591 16.1378 61.3324 16.1378C63.7103 16.1378 64.8097 17.4545 65.2571 18.7713L68.7216 18.1577Z" fill="white"/>
<path d="M82.4741 13.3636H78.4471V8.65909H74.6247V13.3636H71.7483V16.4318H74.6247V28.027C74.6119 31.5938 77.3349 33.3196 80.352 33.2557C81.5665 33.2429 82.3846 33.0128 82.8321 32.8466L82.1417 29.6889C81.8861 29.7401 81.413 29.8551 80.7994 29.8551C79.5593 29.8551 78.4471 29.446 78.4471 27.2344V16.4318H82.4741V13.3636Z" fill="white"/>
<path d="M94.7628 33.3963C100.298 33.3963 103.916 29.3438 103.916 23.2713C103.916 17.1605 100.298 13.108 94.7628 13.108C89.2273 13.108 85.6094 17.1605 85.6094 23.2713C85.6094 29.3438 89.2273 33.3963 94.7628 33.3963ZM94.7756 30.1875C91.1577 30.1875 89.4702 27.0298 89.4702 23.2585C89.4702 19.5 91.1577 16.304 94.7756 16.304C98.3679 16.304 100.055 19.5 100.055 23.2585C100.055 27.0298 98.3679 30.1875 94.7756 30.1875Z" fill="white"/>
<path d="M108.057 9H109.114V5.59091H111.023C111.099 5.59091 111.172 5.59091 111.244 5.58665L113.085 9H114.313L112.34 5.39489C113.452 5.01562 113.972 4.10795 113.972 2.94886C113.972 1.40625 113.051 0.272727 111.006 0.272727H108.057V9ZM109.114 4.63636V1.21023H110.972C112.386 1.21023 112.932 1.90057 112.932 2.94886C112.932 3.99716 112.386 4.63636 110.989 4.63636H109.114Z" fill="white"/>
<path d="M119.721 6.32386C119.721 7.55114 118.784 8.11364 118.034 8.11364C117.199 8.11364 116.602 7.5 116.602 6.54545V2.45455H115.596V6.61364C115.596 8.28409 116.483 9.08523 117.71 9.08523C118.699 9.08523 119.346 8.55682 119.653 7.89205H119.721V9H120.727V2.45455H119.721V6.32386Z" fill="white"/>
<path d="M127.205 3.92045C126.89 2.99148 126.183 2.36932 124.887 2.36932C123.506 2.36932 122.484 3.15341 122.484 4.26136C122.484 5.16477 123.021 5.76989 124.222 6.05114L125.313 6.30682C125.974 6.46023 126.285 6.77557 126.285 7.22727C126.285 7.78977 125.688 8.25 124.751 8.25C123.928 8.25 123.413 7.89631 123.234 7.19318L122.279 7.43182C122.514 8.54403 123.43 9.13636 124.768 9.13636C126.289 9.13636 127.325 8.3054 127.325 7.17614C127.325 6.2642 126.754 5.68892 125.586 5.40341L124.614 5.16477C123.839 4.97301 123.489 4.71307 123.489 4.21023C123.489 3.64773 124.086 3.23864 124.887 3.23864C125.765 3.23864 126.127 3.72443 126.302 4.17614L127.205 3.92045Z" fill="white"/>
<path d="M133.475 3.92045C133.159 2.99148 132.452 2.36932 131.157 2.36932C129.776 2.36932 128.753 3.15341 128.753 4.26136C128.753 5.16477 129.29 5.76989 130.492 6.05114L131.583 6.30682C132.243 6.46023 132.554 6.77557 132.554 7.22727C132.554 7.78977 131.958 8.25 131.02 8.25C130.198 8.25 129.682 7.89631 129.503 7.19318L128.549 7.43182C128.783 8.54403 129.699 9.13636 131.037 9.13636C132.559 9.13636 133.594 8.3054 133.594 7.17614C133.594 6.2642 133.023 5.68892 131.856 5.40341L130.884 5.16477C130.108 4.97301 129.759 4.71307 129.759 4.21023C129.759 3.64773 130.356 3.23864 131.157 3.23864C132.034 3.23864 132.397 3.72443 132.571 4.17614L133.475 3.92045Z" fill="white"/>
<path d="M135.108 9H136.114V2.45455H135.108V9ZM135.619 1.36364C136.011 1.36364 136.335 1.05682 136.335 0.681818C136.335 0.306818 136.011 0 135.619 0C135.227 0 134.903 0.306818 134.903 0.681818C134.903 1.05682 135.227 1.36364 135.619 1.36364Z" fill="white"/>
<path d="M139.882 9.15341C141.024 9.15341 141.62 8.53977 141.825 8.11364H141.876V9H142.882V4.6875C142.882 2.60795 141.297 2.36932 140.461 2.36932C139.473 2.36932 138.348 2.71023 137.836 3.90341L138.791 4.24432C139.012 3.76705 139.537 3.25568 140.495 3.25568C141.42 3.25568 141.876 3.74574 141.876 4.58523V4.61932C141.876 5.10511 141.382 5.0625 140.189 5.21591C138.974 5.37358 137.649 5.64205 137.649 7.14205C137.649 8.42045 138.637 9.15341 139.882 9.15341ZM140.035 8.25C139.234 8.25 138.655 7.89205 138.655 7.19318C138.655 6.42614 139.353 6.1875 140.137 6.08523C140.564 6.03409 141.706 5.91477 141.876 5.71023V6.63068C141.876 7.44886 141.228 8.25 140.035 8.25Z" fill="white"/>
</svg>
